icon-themes/breeze_svg/cmd/lc_snapframe.svg

<svg viewBox="0 0 24 24" xmlns="http://www.w3.org/2000/svg"><path d="m18.5 3c-.831 0-1.5.669-1.5 1.5v1.5h-1v3h5v-3h-1v-1.5c0-.831-.669-1.5-1.5-1.5zm0 1c.277 0 .5.223.5.5v1.5h-1v-1.5c0-.277.223-.5.5-.5zm-13.5 1v3 8 3h3 8 3v-3-6h-1v6 2h-2-8-2v-2-8-2h2 7v-1h-7z" fill="#4d4d4d"/></svg>

<svg xmlns="http://www.w3.org/2000/svg" viewBox="0 0 24 24">
 <path 
     style="fill:#4d4d4d" 
     d="M 18.5 3 C 17.669 3 17 3.669 17 4.5 L 17 6 L 16 6 L 16 9 L 21 9 L 21 6 L 20 6 L 20 4.5 C 20 3.669 19.331 3 18.5 3 z M 18.5 4 C 18.777 4 19 4.223 19 4.5 L 19 6 L 18 6 L 18 4.5 C 18 4.223 18.223 4 18.5 4 z M 5 5 L 5 8 L 5 16 L 5 19 L 8 19 L 16 19 L 19 19 L 19 16 L 19 10 L 18 10 L 18 16 L 18 18 L 16 18 L 8 18 L 6 18 L 6 16 L 6 8 L 6 6 L 8 6 L 15 6 L 15 5 L 8 5 L 5 5 z "
     />
 </svg>
